X: 740
T: Mama rangwu dangbiang qu
L: 1/8
M: 2/4
K: F
f _e e d [I:setbarnb 1]| 
d Ac2 | 
f _e e d | 
d Ac2 | 
A2A c | 
f _e e d | 
d A c d | 
c4 | 
F2F D | 
f2f d | 
c2f f | 
G A G A | 
c2c G | 
A c A G | 
F4 |]

@@@ Tune index: 9614
